synths/iXRP.svg

<svg width="480" height="480" viewBox="0 0 480 480" fill="none" xmlns="http://www.w3.org/2000/svg"><mask id="mask0-593251" maskUnits="userSpaceOnUse" x="0" y="0" width="480" height="480"><circle cx="240" cy="240" r="240" fill="url(#paint0_linear-348510)"/></mask><g mask="url(#mask0-593251)"><circle cx="240" cy="240" r="240" fill="#FF1E39"/><circle cx="240" cy="240" r="208" fill="#fff"/></g><circle cx="240" cy="240" r="184" fill="#0E052F"/><path d="M240 424c101.62 0 184-82.38 184-184S341.62 56 240 56 56 138.38 56 240s82.38 184 184 184z" fill="#23292F"/><path d="M321.305 148h33.235l-69.173 68.505a64.636 64.636 0 01-90.734 0L125.402 148h33.293l52.555 52.014a40.894 40.894 0 0057.454 0L321.305 148zM158.293 338.474H125l69.633-68.919a64.64 64.64 0 0190.734 0L355 338.463h-33.293L268.75 286a40.893 40.893 0 00-57.454 0l-53.015 52.474h.012z" fill="#fff"/><defs><linearGradient id="paint0_linear-348510" x1="240" y1="0" x2="240" y2="701.818" gradientUnits="userSpaceOnUse"><stop stop-color="#08021E"/><stop offset="1" stop-color="#1F0777"/></linearGradient></defs></svg>

<svg width="480" height="480" viewBox="0 0 480 480" fill="none" xmlns="http://www.w3.org/2000/svg">
<mask id="mask0-593251" mask-type="alpha" maskUnits="userSpaceOnUse" x="0" y="0" width="480" height="480">
<circle cx="240" cy="240" r="240" fill="url(#paint0_linear-348510)"/>
</mask>
<g mask="url(#mask0-593251)">
<circle cx="240" cy="240" r="240" fill="#FF1E39"/>
<circle cx="240" cy="240" r="208" fill="white"/>
</g>
<circle cx="240" cy="240" r="184" fill="#0E052F"/>
<path d="M240 424C341.62 424 424 341.62 424 240C424 138.38 341.62 56 240 56C138.38 56 56 138.38 56 240C56 341.62 138.38 424 240 424Z" fill="#23292F"/>
<path d="M321.305 148H354.54L285.367 216.505C273.274 228.421 256.978 235.1 240 235.1C223.022 235.1 206.726 228.421 194.633 216.505L125.402 148H158.695L211.25 200.014C218.903 207.568 229.224 211.804 239.977 211.804C250.73 211.804 261.051 207.568 268.704 200.014L321.305 148ZM158.293 338.474H125L194.633 269.555C206.726 257.64 223.022 250.96 240 250.96C256.978 250.96 273.274 257.64 285.367 269.555L355 338.463H321.707L268.75 286C261.097 278.446 250.776 274.211 240.023 274.211C229.27 274.211 218.949 278.446 211.296 286L158.281 338.474H158.293Z" fill="white"/>
<defs>
<linearGradient id="paint0_linear-348510" x1="240" y1="0" x2="240" y2="701.818" gradientUnits="userSpaceOnUse">
<stop stop-color="#08021E"/>
<stop offset="1" stop-color="#1F0777"/>
</linearGradient>
</defs>
</svg>
